X: 34610
T: Road From Woodford, The
R: reel
M: 4/4
K: Amixolydian
|:agea gedB|cAB^G EAAB|c3d ~e3f|gedB GAB2|
agea gedB|cAB^G EAAB|GABd ~g2ga|bagb aged:|
~c2ac ^gcac|~c2ac ^gcac|~B2gB fBgd|~B2gB fBgd|
~c2ac ^gcac|~c2ac ^gcac|BABd gfga|bagb aged|
~c2ac ^gcac|~c2ac ^gcac|~B2gB fBgd|~B2gB fBgd|
~c2ac ^gcac|~B2gB fBgB|efga bagd|ea^gb a4|

